X: 66
T:Irish Washerwoman,The. JaW.066
M:6/8
L:1/8
Q:120
S:James Winder Ms, Lancashire, 1835-41
R:Jig
O:England
A:Wyresdale,Lancashire
N:a
H:1/8
Z:vmp.Chris Partington, Aug 2004
K:G
d/c/|BGG DGG|BGB dcB| cAA EAA| cAc edc|!
BGG DGG|BGB dcB|cBc Adc|BGGG2:|!
|:g/a/|bgg dgg|bgb c'af|afd dfd|fdf agf|!
 egg dgg|cgg Bgg|cBc Adc|BGG G2:|]
